static/assets/img/icons/theme/code/shift.svg

<svg height="24" viewBox="0 0 24 24" width="24" xmlns="http://www.w3.org/2000/svg"><g fill="none" fill-rule="evenodd"><path d="m0 0h24v24h-24z" opacity="0"/><path d="m12.5936684 18.0752333v-3.6689017h6v-5.99999999h-6v-3.67424379l-6.67157297 6.66635328zm2-11.66890169h5c.5522847 0 1 .44771525 1 1v7.99999999c0 .5522848-.4477153 1-1 1h-5v4.6883381c0 .199014-.0790982.3898683-.2198773.5305374-.2930078.2927787-.7678815.292593-1.0606601-.0004147l-9.68934026-9.6969202c-.29277858-.2930078-.29259275-.7678815.00041506-1.0606601l9.6893401-9.68175946c.1406353-.14052535.3313118-.21946242.5301225-.21946242.4142136 0 .75.33578643.75.75z" fill="#000" fill-rule="nonzero" transform="matrix(0 1 1 0 .593668 -.593668)"/></g></svg>

<svg width="24px" height="24px" viewBox="0 0 24 24" version="1.1" xmlns="http://www.w3.org/2000/svg" xmlns:xlink="http://www.w3.org/1999/xlink">
    <title>Icon For Shift</title>
    <g stroke="none" stroke-width="1" fill="none" fill-rule="evenodd">
        <rect opacity="0" x="0" y="0" width="24" height="24"></rect>
        <path d="M12.5936684,18.0752333 L12.5936684,14.4063316 L18.5936684,14.4063316 L18.5936684,8.40633161 L12.5936684,8.40633161 L12.5936684,4.73208782 L5.92209543,11.3984411 L12.5936684,18.0752333 Z M14.5936684,6.40633161 L19.5936684,6.40633161 C20.1459531,6.40633161 20.5936684,6.85404686 20.5936684,7.40633161 L20.5936684,15.4063316 C20.5936684,15.9586164 20.1459531,16.4063316 19.5936684,16.4063316 L14.5936684,16.4063316 L14.5936684,21.0946697 C14.5936684,21.2936837 14.5145702,21.484538 14.3737911,21.6252071 C14.0807833,21.9179858 13.6059096,21.9178001 13.313131,21.6247924 L3.62379074,11.9278722 C3.33101216,11.6348644 3.33119799,11.1599907 3.6242058,10.8672121 L13.3135459,1.18545264 C13.4541812,1.04492729 13.6448577,0.965990217 13.8436684,0.965990217 C14.257882,0.965990217 14.5936684,1.30177665 14.5936684,1.71599022 L14.5936684,6.40633161 Z" fill="#000000" fill-rule="nonzero" transform="translate(11.998998, 11.405330) scale(-1, 1) rotate(-270.000000) translate(-11.998998, -11.405330) "></path>
    </g>
</svg>
